X: 2
T: Loughrea, The
M: 2/4
L: 1/8
R: polka
K: Gmaj
|: B/A/ |\ 
GD G>A | Bd ed | eg/e/ dB | AG E2 |
GD GG/A/ | B/c/d ed | e/f/g/e/ dB | AG G :|
|: A |\ 
Bd ed | gd/g/ ed | eg/e/ dB | A/B/A/G/ ED | 
B/c/d e2 | g/a/g/f/ ed | eg dc/B/ | AG G :|
